PortableApps/LibreOfficePortable/App/libreoffice/help/media/icon-themes/cmd/lc_showdependents.svg

<svg viewBox="0 0 24 24" xmlns="http://www.w3.org/2000/svg"><path d="m22 3v5h-7v-5zm-1 1h-5v3h5zm1 6v5h-7v-5zm-14 0v5h-7v-5zm13 1h-5v3h5zm-14 0h-5v3h5zm15 6v5h-7v-5zm-1 1h-5v3h5z" fill="#808080"/><path d="m21 4v3h-5v-3zm0 7v3h-5v-3zm-14 0v3h-5v-3zm14 7v3h-5v-3z" fill="#fff"/><g fill="#4d82b8"><path d="m8.4941414 13.99414c-.449403.000092-.670587.54684-.347657.859375l3.4999996 3.5-1.646484 1.646485h4v-4l-1.646484 1.646484-3.4999996-3.5c-.09421-.09737-.223892-.152344-.359375-.152344z"/><path d="m8.4941414 11.00586c-.449403-.000092-.670587-.54684-.347657-.859375l3.4999996-3.5-1.646484-1.646485h4v4l-1.646484-1.646484-3.4999996 3.5c-.09421.09737-.223892.152344-.359375.152344z"/></g></svg>

<?xml version="1.0" encoding="UTF-8" standalone="no"?>
<svg
   xmlns:dc="http://purl.org/dc/elements/1.1/"
   xmlns:cc="http://creativecommons.org/ns#"
   xmlns:rdf="http://www.w3.org/1999/02/22-rdf-syntax-ns#"
   xmlns:svg="http://www.w3.org/2000/svg"
   xmlns="http://www.w3.org/2000/svg"
   xmlns:sodipodi="http://sodipodi.sourceforge.net/DTD/sodipodi-0.dtd"
   xmlns:inkscape="http://www.inkscape.org/namespaces/inkscape"
   viewBox="0 0 24 24"
   version="1.1"
   id="svg6"
   sodipodi:docname="lc_showdependents.svg"
   inkscape:version="0.92.3 (2405546, 2018-03-11)">
  <metadata
     id="metadata12">
    <rdf:RDF>
      <cc:Work
         rdf:about="">
        <dc:format>image/svg+xml</dc:format>
        <dc:type
           rdf:resource="http://purl.org/dc/dcmitype/StillImage" />
        <dc:title></dc:title>
      </cc:Work>
    </rdf:RDF>
  </metadata>
  <defs
     id="defs10" />
  <sodipodi:namedview
     pagecolor="#ffffff"
     bordercolor="#666666"
     borderopacity="1"
     objecttolerance="10"
     gridtolerance="10"
     guidetolerance="10"
     inkscape:pageopacity="0"
     inkscape:pageshadow="2"
     inkscape:window-width="2560"
     inkscape:window-height="1319"
     id="namedview8"
     showgrid="true"
     inkscape:zoom="27.812867"
     inkscape:cx="20.506081"
     inkscape:cy="7.8048408"
     inkscape:window-x="0"
     inkscape:window-y="30"
     inkscape:window-maximized="1"
     inkscape:current-layer="svg6">
    <inkscape:grid
       type="xygrid"
       id="grid849" />
  </sodipodi:namedview>
  <path
     inkscape:connector-curvature="0"
     style="fill:#808080"
     d="M 22,3 V 8 H 15 V 3 Z m -1,1 h -5 v 3 h 5 z m 1,6 v 5 H 15 V 10 Z M 8,10 v 5 H 1 v -5 z m 13,1 h -5 v 3 h 5 z M 7,11 H 2 v 3 h 5 z m 15,6 v 5 h -7 v -5 z m -1,1 h -5 v 3 h 5 z"
     id="rect843"
     sodipodi:nodetypes="cccccccccccccccccccccccccccccccccccccccc" />
  <path
     inkscape:connector-curvature="0"
     style="fill:#ffffff"
     d="M 21,4 V 7 H 16 V 4 Z m 0,7 v 3 H 16 V 11 Z M 7,11 v 3 H 2 v -3 z m 14,7 v 3 h -5 v -3 z"
     id="rect848"
     sodipodi:nodetypes="cccccccccccccccccccc" />
  <path
     inkscape:connector-curvature="0"
     style="fill:#4d82b8"
     d="m 8.4941414,13.99414 c -0.449403,9.2e-5 -0.670587,0.54684 -0.347657,0.859375 l 3.4999996,3.5 L 10,20 h 4 v -4 l -1.646484,1.646484 -3.4999996,-3.5 c -0.09421,-0.09737 -0.223892,-0.152344 -0.359375,-0.152344 z"
     id="path4"
     sodipodi:nodetypes="ccccccccc" />
  <path
     inkscape:connector-curvature="0"
     style="fill:#4d82b8"
     d="m 8.4941414,11.00586 c -0.449403,-9.2e-5 -0.670587,-0.54684 -0.347657,-0.859375 l 3.4999996,-3.5 L 10,5 h 4 v 4 l -1.646484,-1.646484 -3.4999996,3.5 c -0.09421,0.09737 -0.223892,0.152344 -0.359375,0.152344 z"
     id="path4-3"
     sodipodi:nodetypes="ccccccccc" />
</svg>
